X:311
T:Siciliano
T:from a voluntary
C:John Stanley
Z:Transcribed by Frank Nordberg - http://www.musicaviva.com
M:6/8
L:1/8
Q:3/8=100
K:Dm
V:1
K:Dmin
a>gf Tf>ge|d2Dd2a|b>ag g2f|Tf2ea3|b3-b>c'b|\
a3-a>ba|g3-g>ag|f3-f>ba|T^g2aa2g|\
a>d^cd3-|d>ec c>d=B|A3a3-|a6-|a2dg3-|g3-g2^f|\
g3b3-|b3a3-|a3g3-|g3f3|e3e3|f3-f3|g3-g3|\
a3-a3|b3-b2b|a>gf f>ge|d3z2f|e3z2_e|d3z2d|T^c2d d2c|d6|]
V:2
K:Dmin
f>edd2^c|d2Dd2f|g>fee2d|\
d2^ca3-|a>gfg3-|g>fef3-|f>ede3-|e>d^cd3-|d>ec c>d=B|\
A3-A>=BA|^G2AA2G|A3z2c|c>dc _e>dc|B3-B2d|c>dB B>cA|\
B3z2d|c3-c3|B3-B3|A3-A2d|^c3e3-|e>d^cd2d|f>ede2e|\
g>fef2f|a>gfe2d|^c2dd2c|d2A TB>AB|B2^G TA>GA|\
A2^F TG>FG-|G>AF F>GE|F6|]
V:3
K:DMIN bass
D,2D,A,2A,|B,>A,G, F,>E,D,|G,2G,,G,2_A,|A,2A,, ^C,>=B,,A,,|D,2D,E,2E,|\
F,2F,A,,2A,,|=B,,2B,,^C,2C,|D,2E,F,2F,|E,2A,,E,2E,|F,3z2F,|\
E,2A,,E,2E,,|A,,3z2z|^F,3-F,2F,|G,3^F,2B,|A,2G,D2D,|\
G,3z2G,|TE,>D,E,F,2E,|TD,>^C,D,E,2D,|T^C,>=B,,C,D,2D,,|A,,3z3|\
D,3^C,2C,|B,,3C,3|F,3-F,2F,|G,3G,,3|A,,2D,A,2A,,|\
D,3z2D,|^C,3z2=C,|=B,,3z2_B,,|A,,2D,A,2A,,|D,6|]
W:
W:
W:  From Musica Viva - http://www.musicaviva.com
W:  the Internet center for free sheet music downloads.
